X: 1015
T: Hezar Zar
C: Suyolcuzâde Salih Efendi
O: Turkey
F: http://compmusic.upf.edu/node/140
N: karcigar--sarki--agirevfer--hezar_zar--suyolcuzade_salih_efendi
N: makam= karcigar
N: form= sarki
N: usul= agirevfer = 9/4
M: 9/4
L: 1/16
K: C _2/4B _3/4e ^3/4f 
Q: 1/4=60
%%MIDI tuningsystem comma53
c2d4^f2 _7/8ee/d/ce dc_1/4B2 d2c3/2B/ ced3/2c/ dfe3/2d/ cdc2 d2z2  | 
w:   | 
d_7/8e^fg a_bag f3/2e/d2 f2e3/2d/ cdc2 d2e2 dedc d3/2c/_1/4Bc d4  | 
w:   | 
z2c2 d4 _b2ag2^fgf _7/8edc2 _1/4Bcd2 dagf edcB cBA2  | 
w:   | 
a2ag =f=egf eded c_1/4B_ed e2dc2Bc3/2B/ A4 Bcd3/2c/ Bcd4z2 c2d4_b2 ag2^f gf_7/8ed c2Bc d2da gfed cBcB  | 
w:   | 
A2a2 ag=f=e gfed edc_1/4B _ede2 dc2B c3/2B/A4^fg a3/2g/fg  | 
w:   | 
a4 z2_b3ab2 ag2^f f_7/8ef2 edde fga2 agb2 ag2f  | 
w:   | 
^f_7/8e2f2e/d/d4z2 defg a_bag f3/2e/d2 f2e3/2d/ cdc2 d2e2  | 
w:   | 
d_7/8edc d3/2c/_1/4Bc d4 z2c2 d4 _b2ag2^fgf edc2 Bcd2  | 
w:   | 
dag^f _7/8edc_1/4B cBA2 a2ag =f=egf eded cB_ed e2dc2Bc3/2B/  | 
w:   | 
A4 _1/4Bcd3/2c/ Bcd4z2 c2d4_b2 ag2^f gf_7/8ed c2Bc  | 
w:   | 
d2da g^f_7/8ed c_1/4BcB A2a2 ag=f=e gfed edcB _ede2 dc2B  | 
w:   | 
c3/2_1/4B/A4^fg a3/2g/fg a4 z2_b3ab2 ag2f f_7/8ef2 edde  | 
w:   | 
^fga2 ag_b2 ag2f f_7/8e2f2e/d/d4z2 defg abag f3/2e/d2  | 
w:   | 
^f2_7/8e3/2d/ cdc2 d2e2 dedc d3/2c/_1/4Bc d4 z2Bc defd ecd2  | 
w:   | 
_7/8e^fgf edc2 g3/2f/eg fedf edcd c2d2 z2de fgaf gef2  | 
w:   | 
_7/8e^fgf edc2 e3/2d/c_1/4B d3/2c/BA cABG A6Bc defd ecd2  | 
w:   | 
_7/8e^fgf edc2 g3/2f/eg fedf edcd c2d2 z2de fgaf gef2  | 
w:   | 
_7/8e^fgf edc2 e3/2d/c_1/4B d3/2c/BA cABG A6|
w:   | 


